src/assets/selectIconsSpells/utilita_2.svg

<svg xmlns="http://www.w3.org/2000/svg" viewBox="0 0 512 512"><path d="M0 0h512v512H0z"/><path fill="#fff" d="M372 22.41c-6.4 33.89 6.8 54.39 32.6 66.3 4.6 8.17 8.4 16.29 11.4 24.39-15.3-17.02-33.3-25.31-58-13.12 14.1 27.62 35.6 32.42 61.5 23.42 6.2 21 7.7 41.6 6.3 62.4 0 .2 0 .4-.1.6 1 .6 2 1.1 2.9 1.7 4.9 2.9 9.7 5.9 14.3 8.9.4-3.3.7-6.7.9-10 1.2-17.6.4-35.4-3.3-53.5 26.8 5.1 43-8.6 52.8-33.62-24.2-2.6-44.9 1.22-55.3 22.92-2.6-9.4-6-18.9-10.3-28.46 23.7-15.85 37.7-36.07 26-67.62-22.5 8.53-33.5 22.13-36.3 39.47C412.8 44.33 400.3 28 372 22.41zM190.7 62.63C183.4 82.89 176.4 110 172 136.8c-3.2 19.9-5.3 39.7-5.7 56.9 30.4 25.9 63.3 44.6 99.8 46.3-33.2-52.5-63-120-75.4-177.37zM56.82 102.2c3.08 75.4 32.03 178.7 110.68 233.2l5.5 3.8-2 6.3c-3.2 10.1-7.8 19-15 25.8-7.3 6.8-16.9 11.2-28.7 13.3-22.5 4-54.14.8-101.89-7.7-9.6 24.1-8.29 50.6.43 72.1 8.72 21.3 24.29 36.6 42.1 40.6 24.85-31.8 62.26-70.4 113.56-68.1 52 2.3 111.5-12.1 146.9-47.6 12.5-12.4 23.2-42.3 29.4-68.6 6.2-26.3 8.7-49 8.7-49l.6-6.1 6-1.6c21.6-5.6 47.6-10.7 76.7-25.4-8.6-5.8-18.7-12.6-30.4-19.6-17.9-10.6-37.6-19.8-47.3-20.9-16.6-1.7-26 1.3-32.5 6.1-6.4 4.8-10.6 12.2-14.3 21.1-3.6 8.9-6.4 19-11.4 28.1-5.1 9.2-14 17.8-26.8 19.2-56 6.5-103.8-22.9-143.9-60.1-33-30.6-61.58-66.8-86.38-94.9zm376.08 148c-7.1 2.6-13.9 4.9-20.4 6.8-1.8 6.9-3.7 13.8-5.6 20.7l17.4 4.8c3-10.7 5.9-21.5 8.6-32.3z"/></svg>

<?xml version="1.0" encoding="UTF-8" standalone="no"?>
<!DOCTYPE svg PUBLIC "-//W3C//DTD SVG 1.1//EN" "http://www.w3.org/Graphics/SVG/1.1/DTD/svg11.dtd">
<svg width="100%" height="100%" viewBox="0 0 512 512" version="1.1" xmlns="http://www.w3.org/2000/svg" xmlns:xlink="http://www.w3.org/1999/xlink" xml:space="preserve" xmlns:serif="http://www.serif.com/" style="fill-rule:evenodd;clip-rule:evenodd;stroke-linejoin:round;stroke-miterlimit:2;">
    <rect x="0" y="0" width="512" height="512" style="fill-rule:nonzero;"/>
    <path d="M56.82,102.2C59.9,177.6 88.85,280.9 167.5,335.4L173,339.2L171,345.5C167.8,355.6 163.2,364.5 156,371.3C148.7,378.1 139.1,382.5 127.3,384.6C104.8,388.6 73.16,385.4 25.41,376.9C15.81,401 17.12,427.5 25.84,449C34.56,470.3 50.13,485.6 67.94,489.6C92.79,457.8 130.2,419.2 181.5,421.5C233.5,423.8 293,409.4 328.4,373.9C340.9,361.5 351.6,331.6 357.8,305.3C364,279 366.5,256.3 366.5,256.3L367.1,250.2L373.1,248.6C394.7,243 420.7,237.9 449.8,223.2C441.2,217.4 431.1,210.6 419.4,203.6C401.5,193 381.8,183.8 372.1,182.7C355.5,181 346.1,184 339.6,188.8C333.2,193.6 329,201 325.3,209.9C321.7,218.8 318.9,228.9 313.9,238C308.8,247.2 299.9,255.8 287.1,257.2C231.1,263.7 183.3,234.3 143.2,197.1C110.2,166.5 81.62,130.3 56.82,102.2Z" style="fill:white;fill-rule:nonzero;"/>
    <path d="M372,22.41C400.3,28 412.8,44.33 417.4,66.19C420.2,48.85 431.2,35.25 453.7,26.72C465.4,58.27 451.4,78.49 427.7,94.34C432,103.9 435.4,113.4 438,122.8C448.4,101.1 469.1,97.28 493.3,99.88C483.5,124.9 467.3,138.6 440.5,133.5C444.2,151.6 445,169.4 443.8,187C443.6,190.3 443.3,193.7 442.9,197C438.3,194 433.5,191 428.6,188.1C427.7,187.5 426.7,187 425.7,186.4C425.8,186.2 425.8,186 425.8,185.8C427.2,165 425.7,144.4 419.5,123.4C393.6,132.4 372.1,127.6 358,99.98C382.7,87.79 400.7,96.08 416,113.1C413,105 409.2,96.88 404.6,88.71C378.8,76.8 365.6,56.3 372,22.41ZM432.9,250.2C430.2,261 427.3,271.8 424.3,282.5L406.9,277.7C408.8,270.8 410.7,263.9 412.5,257C419,255.1 425.8,252.8 432.9,250.2Z" style="fill:rgb(105,206,81);"/>
    <path d="M190.7,62.63C203.1,120 232.9,187.5 266.1,240C229.6,238.3 196.7,219.6 166.3,193.7C166.7,176.5 168.8,156.7 172,136.8C176.4,110 183.4,82.89 190.7,62.63Z" style="fill:rgb(168,167,167);"/>
</svg>
